layouts/icon-pack/food.svg

<?xml version="1.0" encoding="UTF-8"?>
<svg width="1200pt" height="1200pt" version="1.1" viewBox="0 0 1200 1200" xmlns="http://www.w3.org/2000/svg">
 <g fill="#fff">
  <path d="m144.23 772.15s64.031 235.76 220.31 344.13c57.305 39.844 135.14 35.156 186.09-12.492 4.6875-4.3828 9.375-9 13.805-13.898 18.961-20.625 51.562-21.492 70.312-0.77344 4.6875 5.1719 9.5234 10.062 14.508 14.672 50.953 47.602 128.72 52.242 186.05 12.516 156.3-108.35 220.31-344.16 220.31-344.16 41.039-196.45-21.562-296.2-89.906-346.57s-157.45-60.68-237.21-32.016c-33.992 12.285-65.723 30.094-93.914 52.711-9.8398 7.9297-22.098 12.254-34.734 12.254s-24.895-4.3242-34.734-12.254c-28.191-22.617-59.922-40.426-93.914-52.711-79.805-28.664-169.1-18.281-237.33 32.086-68.227 50.367-130.76 150.14-89.648 346.5z"/>
  <path d="m588.8 393.3c7.0469-0.074219 13.879-2.4336 19.473-6.7227 5.5898-4.2891 9.6367-10.277 11.535-17.066 14.484-49.219 59.414-162.7 177.35-224.04 7.5781-4.0234 13.906-10.051 18.297-17.422 4.3867-7.375 6.668-15.812 6.5938-24.391 0-25.5-20.016-46.523-44.531-46.734-51.727-0.44531-128.91 2.3438-181.73 76.688-15.152 21.664-26.07 46-32.18 71.719-10.055 40.805-24.68 118.73-4.6875 167.37 2.3672 6.0156 6.4766 11.191 11.797 14.859 5.3242 3.6719 11.621 5.668 18.086 5.7422z"/>
  <path d="m293.44 300.12c81.164 27.328 134.3 25.922 161.13 28.523 7.4102 0.69531 14.75-1.875 20.105-7.043 5.3555-5.1641 8.1914-12.41 7.7617-19.84-2.8359-50.742-23.625-155.48-143.51-193.15-86.836-27.281-150.38-9.9609-185.16 6.3281-9.3906 4.3789-16.664 12.301-20.227 22.031s-3.125 20.477 1.2188 29.883c17.578 38.367 60.305 100.12 158.67 133.27z"/>
 </g>
</svg>

<?xml version="1.0" encoding="UTF-8" standalone="no"?>
<!DOCTYPE svg PUBLIC "-//W3C//DTD SVG 1.1//EN" "http://www.w3.org/Graphics/SVG/1.1/DTD/svg11.dtd">
<svg width="100%" height="100%" viewBox="0 0 442 512" version="1.1" xmlns="http://www.w3.org/2000/svg" xmlns:xlink="http://www.w3.org/1999/xlink" xml:space="preserve" xmlns:serif="http://www.serif.com/" style="fill-rule:evenodd;clip-rule:evenodd;stroke-linejoin:round;stroke-miterlimit:2;">
    <g transform="matrix(1,0,0,1,-131.097,-56.89)">
        <g transform="matrix(0.471338,0,0,0.471338,69.3059,30.0756)">
            <path d="M144.23,772.15C144.23,772.15 208.261,1007.91 364.54,1116.28C421.845,1156.12 499.68,1151.44 550.63,1103.79C555.318,1099.4 560.005,1094.79 564.435,1089.89C583.396,1069.27 615.997,1068.4 634.747,1089.12C639.435,1094.29 644.27,1099.18 649.255,1103.79C700.208,1151.39 777.975,1156.03 835.305,1116.31C991.605,1007.96 1055.62,772.145 1055.62,772.145C1096.65,575.695 1034.05,475.945 965.709,425.575C897.365,375.205 808.259,364.895 728.499,393.559C694.507,405.844 662.776,423.653 634.585,446.27C624.745,454.199 612.487,458.524 599.851,458.524C587.215,458.524 574.956,454.199 565.117,446.27C536.926,423.653 505.195,405.844 471.203,393.559C391.398,364.895 302.103,375.278 233.873,425.645C165.646,476.012 103.113,575.785 144.225,772.145L144.23,772.15Z" style="fill:white;fill-rule:nonzero;"/>
        </g>
        <g transform="matrix(0.471338,0,0,0.471338,69.3059,30.0756)">
            <path d="M588.8,393.3C595.847,393.226 602.679,390.866 608.273,386.577C613.863,382.288 617.91,376.3 619.808,369.511C634.292,320.292 679.222,206.811 797.158,145.471C804.736,141.448 811.064,135.42 815.455,128.049C819.842,120.674 822.123,112.237 822.049,103.658C822.049,78.158 802.033,57.135 777.518,56.924C725.791,56.479 648.608,59.268 595.788,133.612C580.636,155.276 569.718,179.612 563.608,205.331C553.553,246.136 538.928,324.061 558.92,372.701C561.288,378.717 565.397,383.892 570.717,387.56C576.042,391.232 582.338,393.228 588.803,393.303L588.8,393.3Z" style="fill:white;fill-rule:nonzero;"/>
        </g>
        <g transform="matrix(0.471338,0,0,0.471338,69.3059,30.0756)">
            <path d="M293.44,300.12C374.604,327.448 427.74,326.042 454.57,328.643C461.98,329.338 469.32,326.768 474.675,321.6C480.031,316.436 482.866,309.19 482.437,301.76C479.601,251.018 458.812,146.28 338.927,108.61C252.091,81.329 188.547,98.649 153.767,114.938C144.376,119.317 137.103,127.239 133.54,136.969C129.977,146.699 130.415,157.446 134.759,166.852C152.337,205.219 195.064,266.972 293.429,300.122L293.44,300.12Z" style="fill:white;fill-rule:nonzero;"/>
        </g>
    </g>
</svg>
